content/themes/dude/svg/logos/padasjoki.svg

<svg width="130" height="28" viewBox="0 0 130 28" fill="none" xmlns="http://www.w3.org/2000/svg">
<g clip-path="url(#clip0_491_371)">
<g clip-path="url(#clip1_491_371)">
<path d="M13.7094 22.764H11.4197V22.6941C11.4896 22.5305 11.9509 16.5631 15.7671 9.51866C18.7487 4.01533 22.0022 0.31662 22.0022 0.31662H22.6102C22.6102 0.31662 22.5613 22.5305 22.6312 22.6941V22.764H13.7094ZM29.8839 22.764H31.8989V22.7025C31.8374 22.5585 31.4265 21.6541 28.7132 15.5483L24.6846 6.442H24.1514C24.1514 6.442 24.1933 22.5578 24.1318 22.7025V22.7647H29.886L29.8839 22.764Z" fill="#1C1E26"/>
<path d="M10.0352 24.2471L33.7183 25.3046L32.493 27.5747H15.7789C10.8795 27.5747 10.0352 24.2471 10.0352 24.2471ZM47.7834 14.4426C47.7834 17.5108 46.4652 19.9207 44.1385 21.4451C42.7183 22.3921 40.8235 22.8457 38.682 22.8457C37.6532 22.8457 36.6642 22.8248 36.0051 22.8038C35.5103 22.7799 35.0161 22.7456 34.5227 22.7011V6.80262C34.9351 6.76068 35.4495 6.69988 36.3958 6.65864C37.2398 6.61966 38.0845 6.59869 38.9294 6.59574C41.3799 6.59574 43.1705 7.08988 44.5089 7.91391C46.9999 9.45853 47.7834 12.0739 47.7834 14.4223V14.4433V14.4426ZM43.8303 14.525C43.8303 13.0629 43.3362 11.7447 42.3066 10.9214C41.5853 10.365 40.618 10.0358 39.3823 10.0358C38.9909 10.0358 38.5995 10.0778 38.3326 10.0981V19.2819C38.3326 19.3239 38.3535 19.3239 38.3731 19.3239C38.682 19.3644 39.0112 19.3854 39.3201 19.3854C40.2474 19.3914 41.1538 19.1107 41.9152 18.5816C43.0265 17.7792 43.8303 16.4611 43.8303 14.5453V14.525ZM53.5677 20.4764C53.0736 21.6715 52.7024 22.5774 52.6409 22.7213V22.7835H48.7284V22.7206C48.7913 22.5767 49.2015 21.6708 51.9197 15.5553L55.9559 6.43219H56.4913L60.4857 15.5553C63.1626 21.6722 63.5539 22.5774 63.6155 22.7213V22.7835H59.3331V22.7206C59.2912 22.5767 58.9208 21.6708 58.4476 20.4771L53.5677 20.4764ZM57.3356 17.4291V17.3871C56.5116 15.3078 56.2034 14.3608 56.0594 13.8254H56.0384C55.8944 14.3608 55.5652 15.3078 54.7209 17.3878V17.4291H57.3356ZM74.641 18.5404C74.641 21.2172 72.3758 23.0296 69.2453 23.0296C68.134 23.0296 66.8158 22.8443 66.0337 22.4732C66.0547 21.2787 66.0757 20.8671 66.1365 19.075H66.1784C66.4454 19.219 66.7131 19.3218 67.0017 19.4245C67.4959 19.5901 68.0928 19.6929 68.8134 19.6929C69.8016 19.6929 70.5222 19.2393 70.5222 18.3125C70.5222 17.7562 70.1308 17.2418 69.4724 16.7064C68.9118 16.2544 68.3755 15.7731 67.8656 15.2645C66.9801 14.379 66.0526 13.1223 66.0526 11.3512C66.0526 8.94203 67.6587 6.61461 71.5713 6.61461C72.3122 6.61461 73.2802 6.71805 73.8568 6.90327C73.8156 8.15923 73.7946 8.50939 73.7541 10.2805H73.7128C73.4509 10.1804 73.1826 10.098 72.9098 10.0337C72.5848 9.96378 72.2532 9.92933 71.9208 9.93101C70.8298 9.93101 70.0477 10.4454 70.0477 11.3317C70.0477 11.867 70.2734 12.1962 70.6243 12.5883C70.9737 12.9783 71.6741 13.5354 72.5393 14.3384C73.8156 15.5329 74.6396 16.7064 74.6396 18.5194V18.5404H74.641ZM86.0544 15.4113C86.0544 18.1699 85.972 19.5084 85.1689 20.8685C84.7363 21.6093 83.7682 22.4131 83.0889 22.722C82.3068 23.0729 81.38 23.2162 80.2485 23.2162C79.7022 23.2106 79.1576 23.1553 78.6214 23.0512C78.107 22.9694 77.6324 22.8653 77.262 22.7213V19.1589H77.2829C77.5919 19.3239 77.942 19.4678 78.2915 19.5503C78.6619 19.6531 79.1777 19.7153 79.465 19.7153C79.9808 19.7153 80.4539 19.6524 80.8446 19.4888C81.288 19.3133 81.6536 18.9844 81.8749 18.562C82.1831 17.9854 82.2858 17.3263 82.2858 15.412V6.72154H86.0544V15.4113ZM106.176 14.669C106.176 19.4056 102.613 23.0303 97.7544 23.0303C92.8962 23.0303 89.3128 19.4056 89.3128 14.7725C89.3128 10.1393 92.9976 6.51466 97.8991 6.51466C102.8 6.51466 106.176 10.0358 106.176 14.6494V14.6704V14.669ZM102.285 14.7312C102.285 12.0956 100.411 10.0149 97.8159 10.0149C95.2215 10.0149 93.2044 12.0334 93.2044 14.7718C93.2044 17.5101 95.0782 19.5286 97.8159 19.5286C100.554 19.5286 102.285 17.4284 102.285 14.7515V14.7312ZM109.403 13.5158V6.72015H113.233V13.0014H113.274L115.765 9.70665C117.227 7.77133 117.825 6.98784 117.99 6.76208V6.72154H122.54V6.76208C122.396 6.92703 121.675 7.83284 119.883 9.97434L116.342 14.1343L120.562 19.1589C122.787 21.7946 123.425 22.5158 123.59 22.7213V22.7835H118.752V22.7626C118.628 22.5976 117.865 21.6506 116.095 19.4056L113.274 15.8425H113.233V22.7828H109.403V13.5158ZM129.651 15.5748V22.7835H125.82V6.72015H129.651V15.5748ZM0.349487 13.5158V6.78235C0.884864 6.72085 2.12056 6.65864 3.04734 6.65864C3.68476 6.65864 4.52906 6.67961 5.29088 6.76208C6.17642 6.86552 7.20594 7.11224 8.09148 7.60638C9.51169 8.41015 10.6859 9.85063 10.6859 12.1368C10.6859 13.2285 10.4182 14.1756 10.0065 14.9374C9.49212 15.8432 8.77083 16.5233 7.96777 16.9559C7.43239 17.2439 6.81454 17.4493 6.17642 17.594C5.45513 17.759 4.6933 17.8198 3.95244 17.8414V22.7842H0.349487V13.5165V13.5158ZM6.99976 12.1571C6.99976 11.3736 6.62933 10.7145 6.05271 10.3245C5.64035 10.0568 5.14691 9.91214 4.57029 9.91214C4.40535 9.91214 4.19986 9.91214 3.95244 9.9331V14.6285C4.05519 14.6285 4.44658 14.6285 4.61153 14.6075C5.16787 14.567 5.68228 14.402 6.05271 14.1546C6.35256 13.9527 6.59407 13.6755 6.75304 13.3508C6.91798 13.0014 6.99976 12.6303 6.99976 12.1774V12.1571Z" fill="#1C1E26"/>
</g>
</g>
<defs>
<clipPath id="clip0_491_371">
<rect width="130" height="27.957" fill="white"/>
</clipPath>
<clipPath id="clip1_491_371">
<rect width="130" height="27.957" fill="white"/>
</clipPath>
</defs>
</svg>

<svg class="is-bigger" width="130" height="28" viewBox="0 0 130 28" fill="none" xmlns="http://www.w3.org/2000/svg"><g clip-path="url(#prefix__clip0_491_371)"><g clip-path="url(#prefix__clip1_491_371)" fill="#1C1E26"><path d="M13.71 22.764h-2.29v-.07c.07-.163.53-6.13 4.347-13.175C18.75 4.015 22.002.317 22.002.317h.608s-.049 22.213.021 22.377v.07H13.71zm16.174 0h2.015v-.061c-.062-.145-.473-1.049-3.186-7.155l-4.028-9.106h-.534s.042 16.116-.02 16.26v.063h5.755l-.002-.001zM10.035 24.247l23.683 1.058-1.225 2.27H15.779c-4.9 0-5.744-3.328-5.744-3.328zm37.748-9.804c0 3.068-1.318 5.478-3.645 7.002-1.42.947-3.314 1.4-5.456 1.4-1.029 0-2.018-.02-2.677-.041a35.65 35.65 0 01-1.482-.103V6.803c.412-.042.926-.103 1.873-.144.844-.04 1.688-.06 2.533-.063 2.45 0 4.241.494 5.58 1.318 2.49 1.545 3.274 4.16 3.274 6.508v.021zm-3.953.082c0-1.462-.494-2.78-1.523-3.604-.722-.556-1.689-.885-2.925-.885-.391 0-.782.042-1.05.062v9.184c0 .042.021.042.041.042.309.04.638.061.947.061a4.496 4.496 0 002.595-.803c1.111-.803 1.915-2.12 1.915-4.037v-.02zm9.738 5.951c-.494 1.196-.866 2.101-.927 2.245v.063h-3.913v-.063c.063-.144.474-1.05 3.192-7.166l4.036-9.123h.535l3.995 9.123c2.677 6.117 3.068 7.022 3.13 7.166v.063h-4.283v-.063c-.042-.144-.412-1.05-.885-2.244h-4.88zm3.768-3.047v-.042c-.824-2.08-1.133-3.026-1.277-3.562h-.02c-.145.536-.474 1.483-1.318 3.563v.041h2.615zM74.64 18.54c0 2.677-2.265 4.49-5.396 4.49-1.111 0-2.43-.186-3.211-.557.02-1.194.042-1.606.102-3.398h.042c.267.144.535.247.824.35.494.165 1.09.268 1.811.268.989 0 1.71-.454 1.71-1.38 0-.557-.392-1.071-1.05-1.607a20.46 20.46 0 01-1.607-1.441c-.886-.886-1.813-2.143-1.813-3.914 0-2.409 1.606-4.736 5.518-4.736.741 0 1.71.103 2.286.288-.041 1.256-.062 1.606-.103 3.378h-.041c-.262-.1-.53-.183-.803-.247a4.592 4.592 0 00-.99-.103c-1.09 0-1.872.514-1.872 1.4 0 .536.225.865.576 1.257.35.39 1.05.947 1.915 1.75 1.277 1.195 2.1 2.368 2.1 4.181v.021h.002zm11.413-3.129c0 2.759-.082 4.097-.885 5.458-.433.74-1.4 1.544-2.08 1.853-.782.35-1.709.494-2.84.494a9.023 9.023 0 01-1.628-.165c-.514-.082-.989-.186-1.359-.33V19.16h.02c.31.165.66.309 1.01.391.37.103.886.165 1.173.165.516 0 .989-.063 1.38-.226a1.99 1.99 0 001.03-.927c.308-.577.41-1.236.41-3.15v-8.69h3.77v8.69zm20.122-.742c0 4.737-3.563 8.361-8.422 8.361-4.858 0-8.441-3.624-8.441-8.258 0-4.633 3.685-8.257 8.586-8.257s8.277 3.52 8.277 8.134v.021-.001zm-3.891.062c0-2.635-1.874-4.716-4.47-4.716-2.593 0-4.61 2.018-4.61 4.757 0 2.738 1.873 4.757 4.61 4.757 2.739 0 4.47-2.1 4.47-4.777v-.02zm7.118-1.215V6.72h3.83v6.281h.041l2.491-3.294c1.462-1.936 2.06-2.72 2.225-2.945v-.04h4.55v.04c-.144.165-.865 1.07-2.657 3.212l-3.541 4.16 4.22 5.025c2.225 2.636 2.863 3.357 3.028 3.562v.063h-4.838v-.021c-.124-.165-.887-1.112-2.657-3.357l-2.821-3.563h-.041v6.94h-3.83v-9.267zm20.248 2.059v7.209h-3.831V6.72h3.831v8.855zM.349 13.515V6.783c.536-.061 1.772-.123 2.698-.123.638 0 1.482.02 2.244.103.885.104 1.915.35 2.8.844 1.42.804 2.595 2.245 2.595 4.53 0 1.093-.268 2.04-.68 2.801a5.182 5.182 0 01-2.038 2.019c-.536.288-1.153.493-1.792.638-.72.165-1.483.226-2.224.247v4.943H.35V13.516zM7 12.158c0-.783-.37-1.443-.946-1.832-.413-.268-.906-.413-1.483-.413-.165 0-.37 0-.618.021v4.696c.103 0 .495 0 .66-.021.556-.041 1.07-.206 1.44-.453.3-.202.542-.48.701-.804.165-.35.247-.72.247-1.174v-.02z"/></g></g><defs><clipPath id="prefix__clip0_491_371"><path fill="#fff" d="M0 0h130v27.957H0z"/></clipPath><clipPath id="prefix__clip1_491_371"><path fill="#fff" d="M0 0h130v27.957H0z"/></clipPath></defs></svg>
